dist/svgs/devices.svg

<!-- Generated by IcoMoon.io -->
<svg version="1.1" xmlns="http://www.w3.org/2000/svg" width="24" height="24" viewBox="0 0 24 24">
<title>devices</title>
<path d="M5 9c0 0.552-0.448 1-1 1s-1-0.448-1-1c0-0.552 0.448-1 1-1s1 0.448 1 1z"></path>
<path d="M22 8v-6c0-1.1-0.9-2-2-2h-18c-1.1 0-2 0.9-2 2v14c0 1.1 0.9 2 2 2h12v4c0 1.1 0.9 2 2 2h6c1.1 0 2-0.9 2-2v-12c0-1.1-0.9-2-2-2zM16 8c-1.1 0-2 0.9-2 2v2h-6v-6h8v2zM16 10h6v8h-6v-8zM2 16v-14h18v6h-2v-3c0-0.6-0.4-1-1-1h-10c-0.6 0-1 0.4-1 1v8c0 0.6 0.4 1 1 1h7v2h-12zM16 22v-2h6v2h-6z"></path>
</svg>

<svg xmlns="http://www.w3.org/2000/svg" width="24" height="24" viewBox="0 0 24 24"><title>devices</title><path d="M5 9a1 1 0 1 1-2 0 1 1 0 0 1 2 0z"/><path d="M22 8V2c0-1.1-.9-2-2-2H2C.9 0 0 .9 0 2v14c0 1.1.9 2 2 2h12v4c0 1.1.9 2 2 2h6c1.1 0 2-.9 2-2V10c0-1.1-.9-2-2-2zm-6 0c-1.1 0-2 .9-2 2v2H8V6h8v2zm0 2h6v8h-6v-8zM2 16V2h18v6h-2V5c0-.6-.4-1-1-1H7c-.6 0-1 .4-1 1v8c0 .6.4 1 1 1h7v2H2zm14 6v-2h6v2h-6z"/></svg>
